!!!COM:      Bach, Johann Sebastian
!!!CDT:      1685/03/31/-1750/07/28/
!!!OPR@@GER: Das wohltemperirte Clavier
!!!OVM@@GER: Band II
!!!OPR@ENG:  Well-Tempered Clavier
!!!OVM@ENG:  Book II
!!!OTL:      Prelude
!!!OKY:      A-flat major
!!!ONM:      no. 17
!!!SCT:      BWV 886
!!!OMV:      1
**kern	**kern	**kern	**kern
*clefF4	*clefG2	*clefG2	*clefG2
*k[b-e-a-d-]	*k[b-e-a-d-]	*k[b-e-a-d-]	*k[b-e-a-d-]
*A-:	*A-:	*A-:	*A-:
*M3/4	*M3/4	*M3/4	*M3/4
*MM64	*MM64	*MM64	*MM64
=1-	=1-	=1-	=1-
8.A-	16r	8a-	8cc
.	[8.e-	.	.
.	.	[8a-	[8cc
32B-	.	.	.
32c	.	.	.
8.E-	8e-]	16a-]	8cc]
.	.	16g	.
.	[8e-	[8a-	[8cc
32G	.	.	.
32A-	.	.	.
8.C	8e-]	16a-]	8cc]
.	.	16g	.
.	8e-	8a-	8cc
32D-	.	.	.
32E-	.	.	.
=2	=2	=2	=2
8AA-	2.ryy	2.ryy	16r
.	.	.	16a-
8r	.	.	16g-
.	.	.	16f
4r	.	.	16g-
.	.	.	16cc
.	.	.	16ee-
.	.	.	16dd-
4r	.	.	16cc
.	.	.	16b-
.	.	.	16a-
.	.	.	16g-X
=3	=3	=3	=3
8.A-	8f	16r	8dd-
.	.	[8.a-	.
.	[8f	.	[8dd-
32c	.	.	.
32d-	.	.	.
8.F	8f]	8a-]	16dd-]
.	.	.	16cc
.	8f	[8a-	[8dd-
32G-	.	.	.
32A-	.	.	.
8.D-	8f	8a-]	16dd-]
.	.	.	16cc
.	8f	8a-	8dd-
32E-	.	.	.
32F	.	.	.
=4	=4	=4	=4
8AA-	2.ryy	2.ryy	16r
.	.	.	16ee-
8r	.	.	16dd-
.	.	.	16cc
4r	.	.	16dd-
.	.	.	16a-
.	.	.	16ff
.	.	.	16ee-
4r	.	.	16dd-
.	.	.	16cc
.	.	.	16b-
.	.	.	16a-
=5	=5	=5	=5
16r	2.ryy	2.ryy	16g
16A-	.	.	16f
16G	.	.	16e-
16F	.	.	16dn
16G	.	.	8.e-
16B-	.	.	.
16E-	.	.	.
16F	.	.	32g
.	.	.	32b-
16G	.	.	8.dd-
16A-	.	.	.
16B-	.	.	.
16c	.	.	16a-
=6	=6	=6	=6
16d-	2.ryy	2.ryy	16g
16e-	.	.	16cc
16d-	.	.	16b-
16c	.	.	16a-
16d-	.	.	8.b-
16f	.	.	.
16B-	.	.	.
16c	.	.	32dd-
.	.	.	32ff
16d-	.	.	8.bb-
16e-	.	.	.
16f	.	.	.
16g	.	.	16dd-
=7	=7	=7	=7
[8a-	2.ryy	2.ryy	16cc
.	.	.	16ff
32a-]	.	.	16ee-
32g	.	.	.
32a-	.	.	16dd-
32b-	.	.	.
8.cc	.	.	16cc
.	.	.	16aa-
.	.	.	16ee-
16b-	.	.	16dd-
8.a-	.	.	16cc
.	.	.	16ee-
.	.	.	16cc
16g	.	.	16b-
=8	=8	=8	=8
[8f	2.ryy	2.ryy	16a-
.	.	.	16dd-
32f]	.	.	16cc
32en	.	.	.
32f	.	.	16b-
32g	.	.	.
8.a-	.	.	16cc
.	.	.	16ff
.	.	.	16cc
16g	.	.	16b-
8.f	.	.	16a-
.	.	.	16cc
.	.	.	16a-
16e-	.	.	16g
=9	=9	=9	=9
[8dn	2.ryy	2.ryy	16f
.	.	.	16b-
32d]	.	.	16a-
32c	.	.	.
32d	.	.	16g
32e-	.	.	.
8.f	.	.	16a-
.	.	.	16cc
.	.	.	16a-
16e-	.	.	16g
8.dn	.	.	16f
.	.	.	16a-
.	.	.	16f
16c	.	.	16e-
=10	=10	=10	=10
*	*staff:10	*staff:10	*
[8B-	[4d	16ryy	16dn
.	.	[8.f	16f
32B-]	.	.	[8a-
32G	.	.	.
32F	.	.	.
32E-	.	.	.
8.Dn	8d]	8f]	16a-]
.	.	.	16g
.	8d	[8f	[8a-
32E-	.	.	.
32F	.	.	.
8.BB-	16d	16f]	16a-]
.	16ryy	16r	16ff
.	8ryy	8r	16b-
32C	.	.	16a-
32Dn	.	.	.
=11	=11	=11	=11
[8E-	2.ryy	2.ryy	32g
.	.	.	32a-
.	.	.	16b-
32E-]	.	.	[8e-
32Dn	.	.	.
32C	.	.	.
32BB-	.	.	.
8.AA-	.	.	16e-]
.	.	.	16c
.	.	.	16f
16FF	.	.	16a-
8.BB-	.	.	16g
.	.	.	16f
.	.	.	16e-
16BBn	.	.	16dn
=12	=12	=12	=12
[8C	2.ryy	2.ryy	32e-
.	.	.	32dn
.	.	.	16c
32C]	.	.	[8a-
32E-	.	.	.
32F	.	.	.
32G	.	.	.
8.A-	.	.	16a-]
.	.	.	16e-
.	.	.	16a-
16F	.	.	16cc
8.Dn	.	.	16b-
.	.	.	16a-
.	.	.	16g
16B-	.	.	16f
=13	=13	=13	=13
[8E-	2.ryy	2.ryy	32g
.	.	.	32f
.	.	.	16e-
32E-]	.	.	[8cc
32G	.	.	.
32A-	.	.	.
32B-	.	.	.
8.c	.	.	16cc]
.	.	.	16g
.	.	.	16cc
16A-	.	.	16ee-
8.F	.	.	16ddn
.	.	.	16cc
.	.	.	16b-
16dn	.	.	16a-
=14	=14	=14	=14
[8G	2.ryy	2.ryy	32b-
.	.	.	32a-
.	.	.	16g
32G]	.	.	[8ee-
32B-	.	.	.
32c	.	.	.
32dn	.	.	.
8.e-	.	.	16ee-]
.	.	.	16b-
.	.	.	16ee-
16c	.	.	16gg
8.A-	.	.	16ff
.	.	.	16ee-
.	.	.	16ddn
16f	.	.	16cc
=15	=15	=15	=15
4A- 4B- 4f	2.ryy	2.ryy	32ddn
.	.	.	32ee-
.	.	.	16ff
.	.	.	16b-
.	.	.	16cc
8r	.	.	16ddn
.	.	.	16ee-
32r	.	.	16ff
32e-	.	.	.
32dn	.	.	16gg
32c	.	.	.
[8B-	.	.	16aa-
.	.	.	16ff
32B-]	.	.	16ee-
32c	.	.	.
32B-	.	.	16ddn
32A-	.	.	.
=16	=16	=16	=16
8.G	2.ryy	2.ryy	16bb-
.	.	.	32gg
.	.	.	32ff
.	.	.	32ee-
.	.	.	32ff
16E-	.	.	16gg
8.c	.	.	16a-
.	.	.	16ff
.	.	.	16ddn
16A-	.	.	16ee-
8.B-	.	.	16g
.	.	.	16ee-
.	.	.	16f
16BB-	.	.	16ddn
=17	=17	=17	=17
*	*staff:6	*staff:6	*
8.E-	8g	16r	8ee-
.	.	[8.b-	.
.	[8g	.	[8ee-
32F	.	.	.
32G	.	.	.
8.BB-	8g]	8b-]	16ee-]
.	.	.	16ddn
.	8g	[8b-	[8ee-
32Dn	.	.	.
32E-	.	.	.
8.GG	8g	8b-]	16ee-]
.	.	.	16dd
.	8g	8b-	8ee-
32AA-	.	.	.
32BB-	.	.	.
=18	=18	=18	=18
8EE-	2.ryy	2.ryy	16r
.	.	.	16ee-
8r	.	.	16dd-X
.	.	.	16cc
4r	.	.	16dd-
.	.	.	16gg
.	.	.	16bb-
.	.	.	16aa-
4r	.	.	16gg
.	.	.	16ff
.	.	.	16ee-
.	.	.	16dd-
=19	=19	=19	=19
8.E-	16r	8a-	8cc
.	[8.e-	.	.
.	.	[8a-	[8cc
32G	.	.	.
32A-	.	.	.
8.C	8e-]	16a-]	8cc]
.	.	16g	.
.	[8e-	[8a-	[8cc
32D-	.	.	.
32E-	.	.	.
8.AA-	8e-]	16a-]	8cc]
.	.	16g	.
.	8e-	8a-	8cc
32BB-	.	.	.
32C	.	.	.
=20	=20	=20	=20
8EE-	2.ryy	2.ryy	16r
.	.	.	16b-
8r	.	.	16a-
.	.	.	16g
4r	.	.	16a-
.	.	.	16e-
.	.	.	16cc
.	.	.	16b-
4r	.	.	16a-
.	.	.	16g
.	.	.	16f
.	.	.	16e-
=21	=21	=21	=21
16r	2.ryy	2.ryy	16dn
16G	.	.	16e-
16F	.	.	16d
16E-	.	.	16c
8.F	.	.	16d
.	.	.	16f
.	.	.	16B-
32A-	.	.	16c
32G	.	.	.
8.A-	.	.	16d
.	.	.	16e-
.	.	.	16f
16E-	.	.	16g
=22	=22	=22	=22
[8Dn	2.ryy	2.ryy	16a-
.	.	.	16b-
32D]	.	.	16a-
32C	.	.	.
32D	.	.	16g
32E-	.	.	.
16F	.	.	16a-
16E-	.	.	16cc
16Dn	.	.	16f
16C	.	.	16g
16BB-	.	.	16a-
16AA-	.	.	16b-
16GG	.	.	16cc
16FF	.	.	16ddn
=23	=23	=23	=23
[8EE-	2.ryy	2.ryy	16ee-
.	.	.	16a-
32EE-]	.	.	16g
32BB-	.	.	.
32C	.	.	16f
32Dn	.	.	.
[8E-	.	.	16g
.	.	.	16b-
32E-]	.	.	16g
32Dn	.	.	.
32E-	.	.	16f
32F	.	.	.
[8G	.	.	16e-
.	.	.	16dd-X
32G]	.	.	16cc
32E-	.	.	.
32F	.	.	16b-
32G	.	.	.
=24	=24	=24	=24
16AA-	8.r	4ryy	8.cc
16d-	.	.	.
16c	.	.	.
16B-	16cc	.	16ee-
16A-	8.cc	8.ryy	8.ee-
16c	.	.	.
16A-	.	.	.
16G	16cc	16ee-	16aa-
16F	4cc	[4ee-	[4aa-
16A-	.	.	.
16F	.	.	.
16E-	.	.	.
=25	=25	=25	=25
[8D-	16cc	16ee-]	16aa-]
.	16ryy	16ryy	16g
32D-]	8ryy	8ryy	16f
32AA-	.	.	.
32BB-	.	.	16en
32C	.	.	.
[8D-	4ryy	4ryy	16f
.	.	.	16a-
32D-]	.	.	16f
32C	.	.	.
32D-	.	.	16e-
32E-	.	.	.
[8F	4ryy	4ryy	16d-
.	.	.	16cc
32F]	.	.	16b-
32D-	.	.	.
32E-	.	.	16a-
32F	.	.	.
=26	=26	=26	=26
16GG	8.r	4ryy	8.b-
16c	.	.	.
16B-	.	.	.
16A-	16b-	.	16dd-
16G	8.b-	8.ryy	8.dd-
16B-	.	.	.
16G	.	.	.
16F	16b-	16dd-	16gg
16En	4b-	[4dd-	[4gg
16G	.	.	.
16E	.	.	.
16Dn	.	.	.
=27	=27	=27	=27
[8C	16b-	16dd-]	16gg]
.	16ryy	16ryy	16f
32C]	8ryy	8ryy	16en
32GG	.	.	.
32AA-	.	.	16dn
32BB-	.	.	.
[8C	4ryy	4ryy	16e
.	.	.	16g
32C]	.	.	16e
32BBn	.	.	.
32C	.	.	16d
32Dn	.	.	.
[8En	4ryy	4ryy	16c
.	.	.	16b-
32E]	.	.	16a-
32C	.	.	.
32D	.	.	16g
32E	.	.	.
=28	=28	=28	=28
16FF	8.r	4ryy	8.a-
16B-	.	.	.
16A-	.	.	.
16G	16a-	.	16cc
16F	8.a-	8.ryy	8.cc
16A-	.	.	.
16F	.	.	.
16E-X	16a-	16cc	16ff
16D-	4a-	[4cc	[4ff
16F	.	.	.
16D-	.	.	.
16C	.	.	.
=29	=29	=29	=29
[8BB-	16a-	16cc]	16ff]
.	16ryy	16ryy	16gg-
32BB-]	8ryy	8ryy	16ff
32An	.	.	.
32B-	.	.	16een
32c	.	.	.
[8d-	4ryy	4ryy	16ff
.	.	.	16bb-
32d-]	.	.	16ff
32c	.	.	.
32d-	.	.	16ee-
32e-	.	.	.
8f	4ryy	4ryy	16dd-
.	.	.	16ff
8r	.	.	16dd-
.	.	.	16cc
=30	=30	=30	=30
8r	2.ryy	2.ryy	16b-
.	.	.	16ee-
32r	.	.	16dd-
32F	.	.	.
32G	.	.	16cc
32An	.	.	.
[8B-	.	.	16dd-
.	.	.	16ff
32B-]	.	.	16dd-
32A	.	.	.
32B-	.	.	16cc
32c	.	.	.
8d-	.	.	16b-
.	.	.	16dd-
8r	.	.	16b-
.	.	.	16a-
=31	=31	=31	=31
8r	2.ryy	2.ryy	16g-
.	.	.	16cc-
32r	.	.	16b-
32D-	.	.	.
32E-	.	.	16an
32F	.	.	.
[8G-	.	.	16b-
.	.	.	16dd-
32G-]	.	.	16b-
32F	.	.	.
32G-	.	.	16a-
32A-	.	.	.
8B-	.	.	16g-X
.	.	.	16b-
8r	.	.	16g-
.	.	.	16f
=32	=32	=32	=32
16r	2.ryy	2.ryy	[8en
16A-	.	.	.
16Gn	.	.	32e]
.	.	.	32dn
16F	.	.	32e
.	.	.	32f
16En	.	.	[8gn
16B-	.	.	.
16E	.	.	32g]
.	.	.	32f
16Dn	.	.	32g
.	.	.	32a-
16C	.	.	8b-
16G	.	.	.
16C	.	.	8r
16BB-	.	.	.
=33	=33	=33	=33
*	*	*staff:12	*
[8AA-	2.ryy	2ryy	32r
.	.	.	32cc
.	.	.	32ddn
.	.	.	32een
32AA-]	.	.	[8ff
32A-	.	.	.
32B-	.	.	.
32c	.	.	.
8.d-X	.	.	32ff]
.	.	.	32cc
.	.	.	32b-
.	.	.	32a-
.	.	.	16b-
16B-	.	.	16dd-
8.c	.	8r	16g
.	.	.	[8.b-
.	.	16f	.
16C	.	16en	.
=34	=34	=34	=34
*	*staff:12	*	*
8.F	16r	8f	8b-]
.	[8.c	.	.
.	.	[8f	[8a-
32G	.	.	.
32A-	.	.	.
8.C	8c]	16f]	8a-]
.	.	16en	.
.	[8c	[8f	[8a-
32En	.	.	.
32F	.	.	.
8.AA-	8c]	16f]	8a-]
.	.	16e	.
.	8c	8f	8a-
32BB-	.	.	.
32C	.	.	.
=35	=35	=35	=35
8FF	2.ryy	2.ryy	16r
.	.	.	16g
8r	.	.	16f
.	.	.	16en
4r	.	.	16f
.	.	.	16a-
.	.	.	16cc
.	.	.	16b-
4r	.	.	16a-
.	.	.	16g
.	.	.	16f
.	.	.	16e-
=36	=36	=36	=36
*	*staff:10	*staff:10	*
8.F	8d-	16r	8b-
.	.	[8.f	.
.	[8d-	.	[8b-
32An	.	.	.
32B-	.	.	.
8.D-	8d-]	8f]	16b-]
.	.	.	16an
.	8d-	[8f	[8b-
32E-	.	.	.
32F	.	.	.
8.BB-	8d-	8f]	16b-]
.	.	.	16a
.	8d-	8f	8b-
32C	.	.	.
32D-	.	.	.
=37	=37	=37	=37
8FF	2.ryy	2.ryy	16r
.	.	.	16F
8r	.	.	16G
.	.	.	16An
4r	.	.	16B-
.	.	.	16c
.	.	.	16d-
.	.	.	16c
4r	.	.	16e-
.	.	.	16d-
.	.	.	16c
.	.	.	16B-
=38	=38	=38	=38
16r	2.ryy	2.ryy	16en
16F	.	.	16d-X
16En	.	.	16c
16Dn	.	.	16B-
16E	.	.	16g
16G	.	.	16d-
16C	.	.	16c
16Dn	.	.	16B-
16En	.	.	16b-
16F	.	.	16a-
16G	.	.	16g
16A-	.	.	16f
=39	=39	=39	=39
16B-	2.ryy	2.ryy	16dd-
16c	.	.	16a-
16B-	.	.	16g
16A-	.	.	16f
16B-	.	.	[8en
16d-	.	.	.
16G	.	.	32e]
.	.	.	32g
16A-	.	.	32b-
.	.	.	32een
16B-	.	.	8.gg
16c	.	.	.
16dn	.	.	.
16en	.	.	16b-
=40	=40	=40	=40
[8f	2.ryy	2.ryy	16a-
.	.	.	16dd-
32f]	.	.	16cc
32en	.	.	.
32f	.	.	16b-
32g	.	.	.
8.a-	.	.	16cc
.	.	.	16ff
.	.	.	16cc
16g	.	.	16b-
8.f	.	.	16a-
.	.	.	16cc
.	.	.	16a-
16e-	.	.	16g
=41	=41	=41	=41
[8d-	2.ryy	2.ryy	16f
.	.	.	16b-
32d-]	.	.	16an
32c	.	.	.
32d-	.	.	16g
32e-	.	.	.
8.f	.	.	16an
.	.	.	16cc
.	.	.	16a
16e-	.	.	16g
8.d-	.	.	16f
.	.	.	16cc
.	.	.	16f
16c	.	.	16e-
=42	=42	=42	=42
[8B-	2.ryy	2.ryy	16d-
.	.	.	16cc
32B-]	.	.	16b-
32An	.	.	.
32B-	.	.	16an
32c	.	.	.
8.d-	.	.	16b-
.	.	.	16dd-
.	.	.	16b-
16c	.	.	16a-
8.B-	.	.	16g-
.	.	.	16b-
.	.	.	16g-
16A-	.	.	16f
=43	=43	=43	=43
[8G-	2.ryy	2.ryy	16e-
.	.	.	16a-
32G-]	.	.	16g-
32F	.	.	.
32G-	.	.	16f
32A-	.	.	.
8.B-	.	.	16g-
.	.	.	16b-
.	.	.	16g-
16A-	.	.	16f
8.G-X	.	.	16e-
.	.	.	16b-
.	.	.	16e-
16F	.	.	16d-
=44	=44	=44	=44
[8E-	2.ryy	2.ryy	32c
.	.	.	32d-
.	.	.	16e-
32E-]	.	.	[8An
32F	.	.	.
32E-	.	.	.
32D-	.	.	.
[8C	.	.	16A]
.	.	.	16c
32C]	.	.	16e-
32D-	.	.	.
32C	.	.	16g-
32BB-	.	.	.
8.AAn	.	.	16f
.	.	.	16e-
.	.	.	16d-
16F	.	.	16c
=45	=45	=45	=45
[8BB-	2.ryy	2.ryy	32d-
.	.	.	32e-
.	.	.	16f
32BB-]	.	.	[8B-
32D-	.	.	.
32E-	.	.	.
32F	.	.	.
[8G-	.	.	16B-]
.	.	.	16d-
32G-]	.	.	16g-
32F	.	.	.
32E-	.	.	16b-
32D-	.	.	.
8.C	.	.	16a-
.	.	.	16g-
.	.	.	16f
16A-	.	.	16e-
=46	=46	=46	=46
[8D-	2.ryy	2.ryy	32f
.	.	.	32g-
.	.	.	16a-
32D-]	.	.	[8d-
32F	.	.	.
32G-	.	.	.
32A-	.	.	.
[8B-	.	.	16d-]
.	.	.	16f
32B-]	.	.	16b-
32A-	.	.	.
32G-X	.	.	16dd-
32F	.	.	.
8.E-	.	.	16cc
.	.	.	16b-
.	.	.	16a-
16c	.	.	16g-X
=47	=47	=47	=47
[8F	2.ryy	2.ryy	32a-
.	.	.	32g-
.	.	.	16f
32F]	.	.	[8dd-
32A-	.	.	.
32B-	.	.	.
32c	.	.	.
[8d-	.	.	16dd-]
.	.	.	16a-
32d-]	.	.	16dd-
32c	.	.	.
32B-	.	.	16ff
32A-	.	.	.
8.G-	.	.	16ee-
.	.	.	16dd-
.	.	.	16cc
16e-	.	.	16b-
=48	=48	=48	=48
4G- 4A- 4e-	2.ryy	2.ryy	32cc
.	.	.	32dd-
.	.	.	16ee-
.	.	.	16a-
.	.	.	16b-
8r	.	.	16cc
.	.	.	16dd-
32r	.	.	16ee-
32d-	.	.	.
32c	.	.	16ff
32B-	.	.	.
[8A-	.	.	16gg-
.	.	.	16ee-
32A-]	.	.	16dd-
32B-	.	.	.
32A-	.	.	16cc
32G-X	.	.	.
=49	=49	=49	=49
8.F	2.ryy	2.ryy	16aa-
.	.	.	32ff
.	.	.	32ee-
.	.	.	32dd-
.	.	.	32ee-
16D-	.	.	16ff
8.B-	.	.	16g-
.	.	.	16ee-
.	.	.	16cc
16G-	.	.	16dd-
8.A-	.	.	16f
.	.	.	16dd-
.	.	.	16e-
16AA-	.	.	16cc
=50	=50	=50	=50
*	*staff:2	*staff:2	*
8.D-	8f	16r	8dd-
.	.	[8.a-	.
.	[8f	.	[8dd-
32E-	.	.	.
32F	.	.	.
8.AA-	8f]	8a-]	16dd-]
.	.	.	16cc
.	8f	[8a-	[8dd-
32C	.	.	.
32D-	.	.	.
8.FF	8f	8a-]	16dd-]
.	.	.	16cc
.	8f	8a-	8dd-
32GG-	.	.	.
32AA-	.	.	.
=51	=51	=51	=51
8DD-	2.ryy	2.ryy	16r
.	.	.	16dd-
8r	.	.	16cc-
.	.	.	16b-
4r	.	.	16cc-
.	.	.	16ff
.	.	.	16aa-
.	.	.	16gg-
4r	.	.	16ff
.	.	.	16ee-
.	.	.	16dd-
.	.	.	16cc-X
=52	=52	=52	=52
[8Dn	[4b-	16ryy	16b-
.	.	[8.ff	32ff
.	.	.	32gg-
32D]	.	.	[8aa-
32F	.	.	.
32G-	.	.	.
32A-	.	.	.
8.B-	8b-]	8ff]	16aa-]
.	.	.	16gg-X
.	8ddn	[8ff	[8aa-
16A-	.	.	.
8.G-XW	8dd	8ff]	16aa-]
.	.	.	16gg-
.	8dd	8ff	8aa-
16F	.	.	.
=53	=53	=53	=53
[8E-	2.ryy	2.ryy	16r
.	.	.	16aa-
32E-]	.	.	16gg-
32B-	.	.	.
32c	.	.	16ff
32dn	.	.	.
8.e-	.	.	16gg-
.	.	.	16bb-
.	.	.	16ee-
16d-	.	.	16ff
8.cw	.	.	16gg-
.	.	.	16ee-
.	.	.	16aan
16B-	.	.	16bb-
=54	=54	=54	=54
*	*staff:14	*staff:14	*
[8An	4ryy	8ryy	32ccc
.	.	.	32ff
.	.	.	32ee-
.	.	.	32dd-
32A]	.	[8cc	[8ee-
32C	.	.	.
32D-	.	.	.
32E-	.	.	.
8.F	8ryy	8cc]	16ee-]
.	.	.	16dd-
.	8an	[8cc	[8ee-
16E-	.	.	.
8.D-W	8a	8cc]	16ee-]
.	.	.	16dd-
.	8a	8cc	8ee-
16C	.	.	.
=55	=55	=55	=55
[8BB-	2.ryy	2.ryy	16r
.	.	.	16ee-
32BB-]	.	.	16dd-
32F	.	.	.
32G	.	.	16cc
32An	.	.	.
8.B-	.	.	16dd-
.	.	.	16ff
.	.	.	16b-
16A-	.	.	16cc
8.Gw	.	.	16dd-
.	.	.	16b-
.	.	.	16een
16F	.	.	16ff
=56	=56	=56	=56
[8En	4ryy	8ryy	32gg
.	.	.	32cc
.	.	.	32b-
.	.	.	32a-
32E]	.	[8g	[8b-
32GG	.	.	.
32AA-	.	.	.
32BB-	.	.	.
8.C	8ryy	8g]	16b-]
.	.	.	16a-
.	8en	[8g	[8b-
16BB-	.	.	.
8.AA-W	8e	8g]	16b-]
.	.	.	16a-
.	8e	8g	8b-
16GG	.	.	.
=57	=57	=57	=57
[8FF	2.ryy	2.ryy	32r
.	.	.	32b-
.	.	.	32a-
.	.	.	32g
32FF]	.	.	[8a-
32AA-	.	.	.
32BB-	.	.	.
32C	.	.	.
8.D-	.	.	32a-]
.	.	.	32g
.	.	.	32f
.	.	.	32en
.	.	.	16f
16C	.	.	16a-
8.BB-W	.	.	16dd-
.	.	.	16a-
.	.	.	16g
16AA-	.	.	16f
=58	=58	=58	=58
*	*staff:12	*staff:12	*
[8GG	[4e-	16ryy	16e-X
.	.	[8.b-	32b-
.	.	.	32cc
32GG]	.	.	[8dd-
32BB-	.	.	.
32C	.	.	.
32D-	.	.	.
8.E-	8e-]	8b-]	16dd-]
.	.	.	16cc
.	8g	[8b-	[8dd-
16D-	.	.	.
8.Cw	8g	8b-]	16dd-]
.	.	.	16cc
.	8g	[8b-	[8dd-
16BB-	.	.	.
=59	=59	=59	=59
[8AA-	16g	16b-]	32dd-]
.	.	.	32cc
.	16ryy	16ryy	32b-
.	.	.	32a-
32AA-]	[8a-	8ee-	[8gg-
32E-	.	.	.
32F	.	.	.
32G-	.	.	.
8.A-	16a-]	8ee-	8gg-]
.	16b-	.	.
.	[8cc	8ee-	[8gg-
16G-	.	.	.
8.Fw	16cc]	8ee-	8gg-]
.	16b-	.	.
.	8cc	8ee-	8gg-
16E-	.	.	.
=60	=60	=60	=60
[8D-	2.ryy	2.ryy	16r
.	.	.	16gg-
32D-]	.	.	16ff
32A-	.	.	.
32B-	.	.	16ee-
32c	.	.	.
[8d-	.	.	16ff
.	.	.	16aa-
32d-]	.	.	16dd-
32e-	.	.	.
32d-	.	.	16ee-
32c	.	.	.
[8B-	.	.	16ff
.	.	.	16dd-
32B-]	.	.	16b-
32c	.	.	.
32B-	.	.	16cc
32A-	.	.	.
=61	=61	=61	=61
[8G	2.ryy	2.ryy	16dd-
.	.	.	16b-
32G]	.	.	16e-
32A-	.	.	.
32G	.	.	16f
32F	.	.	.
8E-	.	.	16g
.	.	.	16a-
8r	.	.	16b-
.	.	.	16cc
8r	.	.	16dd-
.	.	.	16cc
32r	.	.	16b-
32E-	.	.	.
32F	.	.	16dd-
32G	.	.	.
=62	=62	=62	=62
[8A-	2.ryy	2.ryy	32cc
.	.	.	32ee-
.	.	.	32ff
.	.	.	32gg
32A-]	.	.	16aa-
32F	.	.	.
32G	.	.	16cc
32A-	.	.	.
8.B-	.	.	16ee-
.	.	.	16ddn
.	.	.	16gg
16A-	.	.	16ff
8.B-	.	.	16ee-
.	.	.	16dd
.	.	.	16cc
16BB-	.	.	16b-
=63	=63	=63	=63
8.E-	2.ryy	2.ryy	32a-
.	.	.	32g
.	.	.	16f
.	.	.	16g
16F	.	.	16b-
32G	.	.	8e-
32A-	.	.	.
32G	.	.	.
32F	.	.	.
16G	.	.	8r
16B-	.	.	.
16E-	.	.	4r
16D-	.	.	.
16C	.	.	.
16BB-	.	.	.
=64	=64	=64	=64
[8AA-	2.ryy	2.ryy	16r
.	.	.	16d-
32AA-]	.	.	16c
32E-	.	.	.
32F	.	.	16B-
32G	.	.	.
8.A-	.	.	16c
.	.	.	16e-
.	.	.	16c
16E-	.	.	16B-
8.C	.	.	16A-
.	.	.	16g-
.	.	.	16f
16A-	.	.	16e-
=65	=65	=65	=65
16D-	2.ryy	2.ryy	[8f
16B-	.	.	.
16A-	.	.	32f]
.	.	.	32a-
16G-	.	.	32b-
.	.	.	32cc
16F	.	.	[8dd-
16A-	.	.	.
16F	.	.	32dd-]
.	.	.	32a-
16E-	.	.	32dd-
.	.	.	32ee-
16D-	.	.	[4ff
16F	.	.	.
16D-	.	.	.
16C	.	.	.
=66	=66	=66	=66
[8BB-	2.ryy	2.ryy	16ff]
.	.	.	16e-
32BB-]	.	.	16dn
32F	.	.	.
32G	.	.	16c
32A-	.	.	.
8.B-	.	.	16d
.	.	.	16f
.	.	.	16d
16F	.	.	16c
8.Dn	.	.	16B-
.	.	.	16a-
.	.	.	16g
16B-	.	.	16f
=67	=67	=67	=67
16E-	2.ryy	2.ryy	[8g
16e-	.	.	.
16d-X	.	.	32g]
.	.	.	32b-
16c	.	.	32ee-
.	.	.	32ff
16B-	.	.	[8gg
16d-	.	.	.
16B-	.	.	32gg]
.	.	.	32ee-
16A-	.	.	32gg
.	.	.	32aa-
16G	.	.	[8bb-
16B-	.	.	.
16G	.	.	32bb-]
.	.	.	32ee-
16F	.	.	32bb-
.	.	.	32ccc
=68	=68	=68	=68
[8E-	2.ryy	2.ryy	16ddd-
.	.	.	16ccc
32E-]	.	.	16bb-
32B-	.	.	.
32c	.	.	16aa-
32d-	.	.	.
[8e-	.	.	16gg
.	.	.	16bb-
32e-]	.	.	16gg
32dn	.	.	.
32e-	.	.	16ff
32f	.	.	.
[8g	.	.	16ee-
.	.	.	16bb-
32g]	.	.	16ee-
32e-	.	.	.
32f	.	.	16dd-X
32g	.	.	.
=69	=69	=69	=69
*	*staff:6	*staff:6	*
16a-	2ryy	2ryy	[8cc
16f	.	.	.
16e-	.	.	32cc]
.	.	.	32dd-
16d-	.	.	32ee-
.	.	.	32ff
16c	.	.	8.gg-
16e-	.	.	.
16c	.	.	.
16B-	.	.	16a-
32A-	[4a-	4cc 4ee-	[4gg-
32B-	.	.	.
32c	.	.	.
32B-	.	.	.
32A-	.	.	.
32G-	.	.	.
32F	.	.	.
32E-	.	.	.
=70	=70	=70	=70
[8D-	16a-]	16cc 16ee-	16gg-]
.	16ryy	16ryy	16gg-
32D-]	8ryy	8ryy	16ff
32F	.	.	.
32G-	.	.	16ee-
32A-	.	.	.
[8B-	4ryy	4ryy	16dd-
.	.	.	16ff
32B-]	.	.	16dd-
32A-	.	.	.
32B-	.	.	16cc
32c	.	.	.
8.d-	4ryy	4ryy	16b-
.	.	.	16ff
.	.	.	16b-
16c	.	.	16a-
=71	=71	=71	=71
[8B-	2.ryy	2.ryy	16gn
.	.	.	16ff
32B-]	.	.	16ee-
32E-	.	.	.
32F	.	.	16dd-
32G	.	.	.
[8A-	.	.	16cc
.	.	.	16ee-
32A-]	.	.	16cc
32G	.	.	.
32A-	.	.	16b-
32B-	.	.	.
8.c	.	.	16a-
.	.	.	16ee-
.	.	.	16a-
16B-	.	.	16g
=72	=72	=72	=72
[8A-	2.ryy	2.ryy	16f
.	.	.	16ee-
32A-]	.	.	16dd-
32AA-	.	.	.
32BB-	.	.	16cc
32C	.	.	.
[8D-	.	.	16b-
.	.	.	16dd-
32D-]	.	.	16b-
32C	.	.	.
32D-	.	.	16a-
32E-	.	.	.
8.F-	.	.	16g
.	.	.	16dd-
.	.	.	16g
16AA-	.	.	16f
=73	=73	=73	=73
[8GG	2.ryy	2.ryy	16e-
.	.	.	16dd-
32GG]	.	.	16cc-
32EE-	.	.	.
32AA-	.	.	16b-
32BB-	.	.	.
[8C-	.	.	16a-
.	.	.	16cc-X
32C-]	.	.	16a-
32BB-	.	.	.
32AA-	.	.	16g-
32GG-	.	.	.
[8AA-	.	.	16f-
.	.	.	16cc-X
32AA-]	.	.	16f-
32GG-X	.	.	.
32FF-	.	.	16e-
32EE-	.	.	.
=74	=74	=74	=74
[8FF-	2.ryy	2.ryy	16d-
.	.	.	16cc-
32FF-]	.	.	16b--
32AA-	.	.	.
32BB--	.	.	16a-
32C-	.	.	.
8.D-	.	.	32b--X
.	.	.	32f-
.	.	.	32g-
.	.	.	32a-
.	.	.	32b--X
.	.	.	32cc-X
16DD-	.	.	32dd-
.	.	.	32ee--
8.D-W	.	.	16ff-X
.	.	.	16dd-
.	.	.	16b--X
16D-	.	.	16a-
=75	=75	=75	=75
.	.	.	8a-Q
*	*staff:2	*staff:2	*
4D-	4B-X	4e-	4gn
8.r	8.ryy	8.r	8.r
16BB-	16g	16dd-	16ffn
.	.	.	8ffQ
4C	4a-	4cc	4ee-
=76	=76	=76	=76
8.r	8.r	8ryy	8.r
.	.	16ryy	.
16Dn	16c-	16f	16f
2E-	8.B-	2e-	4a-
.	32d-X	.	.
.	32cn	.	.
.	4d-	.	8.gw
.	.	.	16a-
=77	=77	=77	=77
4AA-	4c	4e-	4a-
4r	2ryy	2ryy	4r
4r	.	.	4r
==	==	==	==
*-	*-	*-	*-
!!!AFR:  prelude
!!!EFL:  81/96
!!!END:  1994/02/12/
!!!VID:  1699249796 Bach, BWV 886-01
!!!AST:  Baroque
!!!OCY:  Deutschland
!!!ODT:  1742///
!!!PDT:  1801///
!!!EED:  Walter Hewlett
!!!ENC:  Walter Hewlett
!!!YOR:  Bach Gesellschaft Edition xiv
!!!AFT:  enhanced SCORE
!!!RDT:  2011/10/07/ by Andreas Kornstaedt using massScr2hmd
!!!SCA1: Thematisch-systematisches Verzeichnis der musikalischen Werke 
!!!SCA2: Johann Sebastian Bach: Bach-Werke-Verzeichnis (Schmieder)
!!!YEC1: Copyright 1994, 2000 Center for Computer Assisted Research 
!!!YEC2: in the Humanities
!!!YEM1: Rights to all derivative editions reserved.
!!!YEM2: Refer to licensing agreement for further details.
!!!YEN:  United States of America
!!!ref:  @{OTL}, @{SCT}
!!muse2ps: T^@{OTL} @{ONM} in @{OKY}^C^J.S. Bach\n@{SCT}-@{OMV}^
!!muse2ps: u^@{OPR@ENG}, @{OVM@ENG}^j
